X: 40848
T: Traveling Lamp, The
R: barndance
M: 4/4
K: Gmajor
g2a2|:bgag egdc|BGB/A/G EGDE|G2B/^c/d e~g3|agfg b~a3|
bgag egdc|BGB/A/G EGDE|G2B/^c/d e~g3|edBA G4:|
|:d~g3 bgag|~e3f gedB|d~g3 b~g3|~a3g b~a3|
bgag egdc|BGB/A/G EGDE|G2B/^c/d e~g3|edBA G4:|

